X:1
T:You Will See Your Lord A-Coming
T:You Will See Your Lord A-Coming
T:James White, arranged by Wayne Hooper, 1984
T:Millenial Harp, 1843
T:Musical Arrangement © 1984 Wayne Hooper Courtesy of the Cyber Hymnal™
C:James White, arranged by Wayne Hooper, 1984
Z:Musical Arrangement © 1984 Wayne Hooper
Z:Courtesy of the Cyber Hymnal™
%%score ( 1 2 ) ( 3 4 )
L:1/8
Q:1/4=100
M:2/4
K:D
V:1 treble 
V:2 treble 
V:3 bass 
V:4 bass 
V:1
 [Fd][Ac] | [GB][GB] [GB][GB] | [GB][FA] [EG][FA] | AA [GA][GA] | [FA][DF] [Fd][Ac] | %5
w: 1.~You will|see your Lord a-|com- ing, You will|see your Lord a-|com- ing, You will|
w: 2.~Ga- briel|sounds his might- y|trum- pet, Ga- briel|sounds his might- y|trum- pet, Ga- briel|
w: 3.~You will|see the saints a-|ris- ing, You will|see the saints a-|ris- ing, You will|
w: 4.~An- gels|bear them to the|Sav- ior, An- gels|bear them to the|Sav- ior, An- gels|
w: 5.~Then we’ll|shout, our suff- ’rings|o- ver, Then we’ll|shout, our suff- ’rings|o- ver, Then we’ll|
 [GB][GB] [DB][DB] | [DB][DA] [DF][DG] | [DA]2 [CA]2 [DA]2 ||"^Refrain" D[CE] | [DF]3 [DA] | %10
w: see your Lord a-|com- ing In a|few more days.|||
w: sounds his might- y|trum- pet In a|few more days.|||
w: see the saints a-|ris- ing In a|few more days.|Hear the|band of|
w: bear them to the|Sav- ior In a|few more days.|||
w: shout, our suff- ’rings|o- ver In a|few more days.|||
 [DA][DF] [CE][B,D] | [CE]3 [CF] | [A,E][A,D] [A,D][CE] | [DF]3 [DA] | [DA][DF] [CE][B,D] | %15
w: |||||
w: |||||
w: mu- sic, Hear the|band of|mu- sic, Hear the|band of|mu- sic Which is|
w: |||||
w: |||||
 [CA]>[DA] [EA]>[CA] | !fermata![DA]2 |] %17
w: ||
w: ||
w: sound- ing thro’ the|air.|
w: ||
w: ||
V:2
 x2 | x4 | x4 | AA x2 | x4 | x4 | x4 | x6 || x2 | x4 | x4 | x4 | x4 | x4 | x4 | x4 | x2 |] %17
V:3
 [D,A,][D,D] | [G,D][G,D] [G,D][G,D] | [D,D][D,D] [D,A,][D,A,] | [F,D][F,D] [E,C][E,C] | %4
w: ~ ~|~ ~ ~ ~|~ ~ ~ ~|~ ~ ~ ~|
 [D,D][D,A,] [D,A,][F,D] | [G,D][G,D] [G,,G,][G,,G,] | [D,G,][D,F,] [D,A,][D,G,] | %7
w: ~ ~ ~ ~|~ ~ ~ ~|~ ~ ~ ~|
 [A,,F,]2 (E,G,) [D,F,]2 || [D,F,][A,,A,] | [D,A,][D,A,] [D,A,][D,F,] | %10
w: ~ ~ * ~|~ ~|(heav’n- ly band) ~|
 [D,F,][D,A,] [A,,G,][B,,F,] | [A,,A,][A,,A,] ([A,,A,][A,,A,]) | [D,G,][D,F,] [A,,F,][A,,G,] | %13
w: ~ ~ ~ ~|(heav’n- ly band) *|~ ~ ~ ~|
 [D,A,][D,A,] ([D,A,][D,F,]) | [D,F,][D,A,] [A,,G,][B,,F,] | [A,,A,]>[A,,F,] [A,,G,]>[A,,G,] | %16
w: (heav’n- ly band) *|||
 !fermata![D,F,]2 |] %17
w: |
V:4
 x2 | x4 | x4 | x4 | x4 | x4 | x4 | x2 A,,2 x2 || x2 | x4 | x4 | x4 | x4 | x4 | x4 | x4 | x2 |] %17

